styles/3/Numix/128x128/places/default-folder-copy.svg

<svg xmlns="http://www.w3.org/2000/svg" xmlns:xlink="http://www.w3.org/1999/xlink" width="128px" height="128px" viewBox="0 0 128 128" version="1.1">
<g id="surface1">
<path style=" stroke:none;fill-rule:nonzero;fill:rgb(91.764706%,56.470588%,21.176471%);fill-opacity:1;" d="M 4 20 L 72 20 L 72 48 L 4 48 Z M 4 20 "/>
<path style=" stroke:none;fill-rule:nonzero;fill:rgb(91.764706%,56.470588%,21.176471%);fill-opacity:1;" d="M 12.054688 20 C 12.054688 18 12.054688 16 15.679688 16 L 28.375 16 C 32 16 32 18 32 20 Z M 12.054688 20 "/>
<path style=" stroke:none;fill-rule:nonzero;fill:rgb(58.431373%,59.607843%,62.352941%);fill-opacity:1;" d="M 8 28 L 68 28 L 68 40 L 8 40 Z M 8 28 "/>
<path style=" stroke:none;fill-rule:nonzero;fill:rgb(84.705882%,84.705882%,85.490196%);fill-opacity:1;" d="M 16 24 L 64 24 L 64 60 L 16 60 Z M 16 24 "/>
<path style=" stroke:none;fill-rule:nonzero;fill:rgb(97.647059%,97.647059%,97.647059%);fill-opacity:1;" d="M 12 32 L 60 32 L 60 68 L 12 68 Z M 12 32 "/>
<path style=" stroke:none;fill-rule:nonzero;fill:rgb(94.901961%,73.333333%,39.215686%);fill-opacity:1;" d="M 0 36 L 76 36 L 70.570312 76 L 5.429688 76 Z M 0 36 "/>
<path style=" stroke:none;fill-rule:nonzero;fill:rgb(0%,0%,0%);fill-opacity:0.101961;" d="M 15.625 16 C 12 16 12 18 12 20 L 4 20 L 4 36 L 0 36 L 5.375 76 L 70.625 76 L 72.75 60 L 84 60 C 84 58 84 56 80.375 56 L 73.25 56 L 76 36 L 72 36 L 72 20 L 32 20 C 32 18 32 16 28.375 16 Z M 15.625 16 "/>
<path style=" stroke:none;fill-rule:nonzero;fill:rgb(91.764706%,56.470588%,21.176471%);fill-opacity:1;" d="M 56 60 L 124 60 L 124 88 L 56 88 Z M 56 60 "/>
<path style=" stroke:none;fill-rule:nonzero;fill:rgb(91.764706%,56.470588%,21.176471%);fill-opacity:1;" d="M 64.054688 60 C 64.054688 58 64.054688 56 67.679688 56 L 80.375 56 C 84 56 84 58 84 60 Z M 64.054688 60 "/>
<path style=" stroke:none;fill-rule:nonzero;fill:rgb(58.431373%,59.607843%,62.352941%);fill-opacity:1;" d="M 60 68 L 120 68 L 120 80 L 60 80 Z M 60 68 "/>
<path style=" stroke:none;fill-rule:nonzero;fill:rgb(84.705882%,84.705882%,85.490196%);fill-opacity:1;" d="M 68 64 L 116 64 L 116 100 L 68 100 Z M 68 64 "/>
<path style=" stroke:none;fill-rule:nonzero;fill:rgb(97.647059%,97.647059%,97.647059%);fill-opacity:1;" d="M 64 72 L 112 72 L 112 108 L 64 108 Z M 64 72 "/>
<path style=" stroke:none;fill-rule:nonzero;fill:rgb(94.901961%,73.333333%,39.215686%);fill-opacity:1;" d="M 52 76 L 128 76 L 122.570312 116 L 57.429688 116 Z M 52 76 "/>
</g>
</svg>

<?xml version="1.0" encoding="UTF-8" standalone="no"?>
<svg
   xmlns:dc="http://purl.org/dc/elements/1.1/"
   xmlns:cc="http://creativecommons.org/ns#"
   xmlns:rdf="http://www.w3.org/1999/02/22-rdf-syntax-ns#"
   xmlns:svg="http://www.w3.org/2000/svg"
   xmlns="http://www.w3.org/2000/svg"
   xmlns:sodipodi="http://sodipodi.sourceforge.net/DTD/sodipodi-0.dtd"
   xmlns:inkscape="http://www.inkscape.org/namespaces/inkscape"
   width="128px"
   height="128px"
   viewBox="0 0 128 128"
   version="1.1"
   id="svg2"
   inkscape:version="0.48.5 r10040"
   sodipodi:docname="folder-copy.svg">
  <metadata
     id="metadata35">
    <rdf:RDF>
      <cc:Work
         rdf:about="">
        <dc:format>image/svg+xml</dc:format>
        <dc:type
           rdf:resource="http://purl.org/dc/dcmitype/StillImage" />
      </cc:Work>
    </rdf:RDF>
  </metadata>
  <defs
     id="defs33" />
  <sodipodi:namedview
     pagecolor="#ffffff"
     bordercolor="#666666"
     borderopacity="1"
     objecttolerance="10"
     gridtolerance="10"
     guidetolerance="10"
     inkscape:pageopacity="0"
     inkscape:pageshadow="2"
     inkscape:window-width="1280"
     inkscape:window-height="998"
     id="namedview31"
     showgrid="false"
     inkscape:zoom="1.84375"
     inkscape:cx="42.085549"
     inkscape:cy="1.3795252"
     inkscape:window-x="0"
     inkscape:window-y="0"
     inkscape:window-maximized="1"
     inkscape:current-layer="svg2" />
  <path
     inkscape:connector-curvature="0"
     id="path5"
     d="m 4,20 68,0 0,28 -68,0 z m 0,0"
     style="fill:#ea9036;fill-opacity:1;fill-rule:nonzero;stroke:none" />
  <path
     inkscape:connector-curvature="0"
     id="path7"
     d="m 12.054688,20 c 0,-2 0,-4 3.625,-4 L 28.375,16 C 32,16 32,18 32,20 z m 0,0"
     style="fill:#ea9036;fill-opacity:1;fill-rule:nonzero;stroke:none" />
  <path
     inkscape:connector-curvature="0"
     id="path9"
     d="m 8,28 60,0 0,12 -60,0 z m 0,0"
     style="fill:#94979e;fill-opacity:1;fill-rule:nonzero;stroke:none" />
  <path
     inkscape:connector-curvature="0"
     id="path11"
     d="m 16,24 48,0 0,36 -48,0 z m 0,0"
     style="fill:#d7d7d9;fill-opacity:1;fill-rule:nonzero;stroke:none" />
  <path
     inkscape:connector-curvature="0"
     id="path13"
     d="m 12,32 48,0 0,36 -48,0 z m 0,0"
     style="fill:#f8f8f8;fill-opacity:1;fill-rule:nonzero;stroke:none" />
  <path
     inkscape:connector-curvature="0"
     id="path15"
     d="m 0,36 76,0 -5.429688,40 -65.140624,0 z m 0,0"
     style="fill:#f2bb64;fill-opacity:1;fill-rule:nonzero;stroke:none" />
  <path
     inkscape:connector-curvature="0"
     id="path17"
     d="M 15.625,16 C 12,16 12,18 12,20 L 4,20 4,36 0,36 5.375,76 70.625,76 72.75,60 84,60 c 0,-2 0,-4 -3.625,-4 L 73.25,56 76,36 72,36 72,20 32,20 c 0,-2 0,-4 -3.625,-4 z m 0,0"
     style="fill:#000000;fill-opacity:0.10196102;fill-rule:nonzero;stroke:none" />
  <path
     inkscape:connector-curvature="0"
     id="path19"
     d="m 56,60 68,0 0,28 -68,0 z m 0,0"
     style="fill:#ea9036;fill-opacity:1;fill-rule:nonzero;stroke:none" />
  <path
     inkscape:connector-curvature="0"
     id="path23"
     d="m 60,68 60,0 0,12 -60,0 z m 0,0"
     style="fill:#94979e;fill-opacity:1;fill-rule:nonzero;stroke:none" />
  <path
     inkscape:connector-curvature="0"
     id="path25"
     d="m 68,64 48,0 0,36 -48,0 z m 0,0"
     style="fill:#d7d7d9;fill-opacity:1;fill-rule:nonzero;stroke:none" />
  <path
     inkscape:connector-curvature="0"
     id="path27"
     d="m 64,72 48,0 0,36 -48,0 z m 0,0"
     style="fill:#f8f8f8;fill-opacity:1;fill-rule:nonzero;stroke:none" />
  <path
     inkscape:connector-curvature="0"
     id="path29"
     d="m 52,76 76,0 -5.42969,40 -65.140622,0 z m 0,0"
     style="fill:#f2bb64;fill-opacity:1;fill-rule:nonzero;stroke:none" />
  <path
     inkscape:connector-curvature="0"
     id="path21"
     d="m 64.054688,60 c 0,-2 0,-4 3.625,-4 L 80.375,56 C 84,56 84,58 84,60 z m 0,0"
     style="fill:#ea9036;fill-opacity:1;fill-rule:nonzero;stroke:none" />
</svg>
